X:93
T: 's Konzellerer Doerfl is scheibnkuglrund
N: D0134
O: Europa, Mitteleuropa, Deutschland, Bayer. Wald, Konzell
N: zweistimmig (Sextparallelen und Terzen) ; Inzipit = Variante zum Lied
R: Heimat - Lied
M: 3/4
L: 1/8
K: A
 |  | E2 | FddcB2 | AccBA2 | GBBcG2 | A2
ABcE | FddcB2 | AccBA2 | GBBEcB | A2
ABcE | FddcB2 | AccBA2 | GBBEcB | A2z2

